X: 16
T: Kid On The Mountain, The
Z: UPipes & harp
S: https://thesession.org/tunes/52#setting49371
R: slip jig
M: 9/8
L: 1/8
K: Emin
|:E3 FEF G2F|E3 BcA BGD|E3 FEF G2A|BAG FAG FED:|
|:BGB AFA G2D|GAB dge dBA|BGB AFA G2A|BAG FAG FED:|
|:g3 eBe e2f|g3 efg afd|g3 eBe ega|bag fag fed:|
|:eBB e2 fgfg|eBB efg afd|eBB e2f g2a|bag fag fed:|
|:edB dBA G2D|GAB dge dBd|edB dBA G2A|BAG FAG FED:|

